X: 37153
T: Siobhan O'Donnell's
R: reel
M: 4/4
K: Amajor
|:ABce a2ba|f2af fece|f3e cBAF|EFAB cBAF|
E3F ABce|f2af fece|f3e cBcA|BA (3GAB A4:|
|:ABce fece|fA (3AAA fAeA|fAAf ffef|aefa eAce|
f3e cBAF|E3F ABce|f2af fecA|BAGB A4:|

